!!!!SEGMENT: pl-cz--iii-686--001_volckmer-augustinus--requiem-requiem.krn
!!!cenid: 18xx:1140
!!!COM: Volckmer, Augustin
!!!COM-rismid: pe30020656
!!!CDT: 1755-~1820
!!!CNT:
!!!OPR: Requiem
!!!OTL: Requiem
!!!OMV: 001
!!!PDT: 1836
!!!AGN: Sacred; Requiem
!!!SMS-siglum: PL-CZ
!!!SMS-shelfmark: III-686
!!!SMS-shelfwork: 001-001 M
!!!SMS-variant:
!!!SMS-altvar:
!!!NIFC-rismid: 300001401
!!!URL-scan: http://repozytorium.nifc.pl/skany/pl-cz-nut--iii-686
!!!ONB-nifc: UWAGA: części Requiem: Requiem, Dies irae, Domine Jesu Christe, Sanctus et Benedictus, Agnus Dei. Uwaga: Sanctus i Benedictus to jedna część
!!!key: E-
**kern	**dynam	**fb	**kern	**kern	**dynam	**kern	**text	**kern	**text	**kern	**text	**kern	**text	**kern	**kern	**kern	**kern	**kern	**kern	**dynam	**kern	**dynam
*part14	*part14	*	*part13	*part12	*part12	*part11	*part11	*part10	*part10	*part9	*part9	*part8	*part8	*part7	*part6	*part5	*part4	*part3	*part2	*part2	*part1	*part1
*staff14	*staff14	*	*staff13	*staff12	*	*staff11	*staff11	*staff10	*staff10	*staff9	*staff9	*staff8	*staff8	*staff7	*staff6	*staff5	*staff4	*staff3	*staff2	*	*staff1	*
*group	*group	*group	*group4	*group4	*group4	*group3	*group3	*group3	*group3	*group3	*group3	*group3	*group3	*group2	*group2	*group2	*group2	*group1	*group1	*group1	*group1	*group1
*I"Organo.	*	*	*I"Violino IIdo	*I"Violino Primo	*	*I"Basso	*	*I"Tenore,	*	*I"Alto.	*	*I"Canto	*	*I"Tromba IIdo in Es	*I"Tromba Ima in Es con Sordino	*I"Cornuo IIdo in Es.	*I"Corno Prymo in Es	*I"Fagotto.	*I"Clarinetto IIdo in B.	*	*I"Clarinetto 1mo in B.	*
*I'org	*	*	*I'vl 2	*I'vl 1	*	*I'B	*	*I'T	*	*I'A	*	*I'S	*	*I'tr 2 in E|b	*I'tr 1 in E|b	*I'cor 2 in E|b	*I'cor 1 in E|b	*I'fag	*I'cl 2 in B|b	*	*I'cl 1 in B|b	*
*Iorgan	*	*	*Ivioln	*Ivioln	*	*Ibass	*	*Itenor	*	*Ialto	*	*Isoprn	*	*Itromp	*Itromp	*Icor	*Icor	*Ifagot	*Iclarb	*	*Iclarb	*
*ICklav	*	*	*ICstr	*ICstr	*	*ICvox	*	*ICvox	*	*ICvox	*	*ICvox	*	*ICbras	*ICbras	*ICbras	*ICbras	*ICww	*ICww	*	*ICww	*
*clefF4	*	*	*clefG2	*clefG2	*	*clefF4	*	*clefC4	*	*clefC3	*	*clefC1	*	*clefG2	*clefG2	*clefG2	*clefG2	*clefF4	*clefG2	*	*clefG2	*
*	*	*	*	*	*	*	*	*	*	*	*	*	*	*ITrd-2c-3	*ITrd-2c-3	*ITrd5c9	*ITrd5c9	*	*ITrd1c2	*	*ITrd1c2	*
*k[b-e-a-]	*	*	*k[b-e-a-]	*k[b-e-a-]	*	*k[b-e-a-]	*	*k[b-e-a-]	*	*k[b-e-a-]	*	*k[b-e-a-]	*	*k[b-e-a-]	*k[b-e-a-]	*k[b-e-a-]	*k[b-e-a-]	*k[b-e-a-]	*k[b-e-a-]	*	*k[b-e-a-]	*
*E-:	*	*	*E-:	*E-:	*	*E-:	*	*E-:	*	*E-:	*	*E-:	*	*E-:	*E-:	*E-:	*E-:	*E-:	*E-:	*	*E-:	*
*M2/2	*	*	*M2/2	*M2/2	*	*M2/2	*	*M2/2	*	*M2/2	*	*M2/2	*	*M2/2	*M2/2	*M2/2	*M2/2	*M2/2	*M2/2	*	*M2/2	*
*met(c|)	*	*	*met(c|)	*met(c|)	*	*met(c)	*	*met(c|)	*	*met(c|)	*	*met(c|)	*	*met(c|)	*met(c|)	*met(c|)	*met(c)	*met(c)	*met(c|)	*	*met(c|)	*
=1	=1	=1	=1	=1	=1	=1	=1	=1	=1	=1	=1	=1	=1	=1	=1	=1	=1	=1	=1	=1	=1	=1
*	*	*above	*	*	*	*	*	*	*	*	*	*	*	*	*	*	*	*	*	*	*	*
!LO:TX:a:t=P:problem:znaki przykluczowe w źródle - BB- C- F-	!	!	!	!	!	!	!	!	!	!	!	!LO:TX:t=P:problem:błędnie wpisany znak: f- zamiast a-	!	!	!	!	!	!	!	!	!	!
!LO:TX:a:i:t=Adagio.	!	!	!	!	!	!LO:TX:t=P:problem:błędnie wpisane znaki: C- zamiast BB-, D- zamiast E-, G- zamiast AA- 	!	!LO:TX:t=P:problem:błędna kolejność, błędnie wpisane znaki: A- zamiast B-, F- zamiast A-, d- zamiast e- 	!	!LO:TX:t=P:problem:błędnie wpisane znaki: A- zamiast B-, d- zamiast e-, G- zamiast A- 	!	!	!	!LO:TX:a:i:t=Adagio	!LO:TX:a:i:t=Adagio	!	!LO:TX:a:i:t=Adagio	!	!	!	!	!
!LO:TX:a:i:t=Solo	!	!	!LO:TX:a:i:t=Adagio.	!LO:TX:a:i:t=Adagio.	!	!LO:TX:a:i:t=Adagio	!	!LO:TX:a:i:t=Adagio.	!	!LO:TX:a:i:t=Adagio	!	!LO:TX:a:i:t=Adagio	!	!LO:TX:a:t=1	!LO:TX:a:t=1	!LO:TX:a:i:t=Adagio	!LO:N:vis=2	!	!LO:TX:a:i:t=Adagio!	!	!LO:TX:a:i:t=Adagio	!
!	!	!	!	!	!LO:DY:a:t=pio.	!	!	!	!	!	!	!	!	!	!	!	!	!LO:TX:a:i:t=Adagio	!	!	!	!
!	!	!	!	!	!	!	!	!	!	!	!	!	!	!	!	!	!	!LO:TX:t=P:problem:błędnie wpisane znaki: D- zamiast BB-, G- zamiast E-, BB- zamiast AA- 	!	!	!	!
4E-\	.	.	4B-/	4g/	p	4E-\	Re-	4B-\	Re-	4e-\	Re-	4g\	Re-	1r	1r	1r	1r	4E-\	1r	.	1r	.
4E-\	.	.	4B-/	4g/	.	4E-\	-qwi-	4B-\	-qui-	4e-\	-qui-	4g\	-qǔi-	.	.	.	.	4E-\	.	.	.	.
4E-\	.	.	4B-/	4g/	.	4E-\	-em	4B-\	-em	4e-\	-em	4g\	-em	.	.	.	.	4E-\	.	.	.	.
4E-\	.	.	4B-/	4g/	.	4E-\	e-	4B-\	e-	4e-\	e-	4g\	e-	.	.	.	.	4E-\	.	.	.	.
=2	=2	=2	=2	=2	=2	=2	=2	=2	=2	=2	=2	=2	=2	=2	=2	=2	=2	=2	=2	=2	=2	=2
*	*	*	*	*	*	*	*	*2\right	*	*2\right	*	*2\right	*	*	*	*	*	*	*2\right	*	*	*
4GG/	.	X 4_	4G/	4g/	.	2BBn/	-ter-	2Bn\	-ter-	2d\	-ter-	2g\	-ter-	1g	1g	1G	1g	4GG/	2r	.	1gg	f
4GG/	.	.	4G/	4g/	.	.	.	.	.	.	.	.	.	.	.	.	.	4GG/	.	.	.	.
4GG/	.	.	4G/	4g/	.	2BB/	-nam	2B\	-nam	2d\	-nam	2g\	-num	.	.	.	.	4GG/	2bX\	f	.	.
4GG/	.	X X	4G/	4g/	.	.	.	.	.	.	.	.	.	.	.	.	.	4GG/	.	.	.	.
=3	=3	=3	=3	=3	=3	=3	=3	=3	=3	=3	=3	=3	=3	=3	=3	=3	=3	=3	=3	=3	=3	=3
!	!	!	!	!	!	!	!	!	!	!	!	!	!	!	!	!LO:N:vis=2	!	!	!	!	!	!
!	!	!	!	!	!	!	!	!	!	!	!	!	!	!LO:TX:a:t=1.	!	!LO:TX:a:t=1.	!LO:N:vis=2	!	!	!	!	!
4E-\	.	X 6	4c/	4g/	.	4E-\	do-	4c\	Do-	4c\	Do-	4g\	Do-	1r	1r	1r	1r	4E-\	1r	.	1r	.
4C\	.	X 7	4g/	4ee-\	.	4C\	-na	4G\	-na	4g\	-na	4ee-\	-na	.	.	.	.	4C\	.	.	.	.
4D\	.	X 6	4f/	4dd\	.	4D\	e-	4Bn\	e-	4f\	e-	4dd\	e-	.	.	.	.	4D\	.	.	.	.
4E-\	.	X 6	4e-/	4cc\	.	4E-\	-i	4c\	-i	4e-\	-i	4cc\	-is	.	.	.	.	4E-\	.	.	.	.
=4	=4	=4	=4	=4	=4	=4	=4	=4	=4	=4	=4	=4	=4	=4	=4	=4	=4	=4	=4	=4	=4	=4
*2\right	*	*	*	*2\right	*	*2\right	*	*	*	*	*	*	*	*	*	*	*	*2\right	*	*	*2\right	*
2F\	.	6 4-	2d/	2b-\	.	2F\	Do-	2F/	Do-	2d\	Do-	2b-\	Do-	2B-/	2b-/	1f	1f	2F\	2dd\	.	2bb-\	.
!	!	!	!	!LO:SIC:v:s=2bn	!	!	!	!	!	!LO:TX:a:t=c	!	!	!	!	!	!	!	!	!	!	!	!
2FF/	.	5 n	2c/	2b-\	.	2F\	-mi-	2c\	-mi-	2c\	-mi-	2an\	-mi-	2r	2r	.	.	2FF/	2cc\	.	2aa\	.
!	!	!	!	!LO:LB:g=original	!	!	!	!	!	!	!	!	!	!	!	!	!LO:LB:g=original	!	!	!	!	!
=5	=5	=5	=5	=5	=5	=5	=5	=5	=5	=5	=5	=5	=5	=5	=5	=5	=5	=5	=5	=5	=5	=5
4BB-/	.	X 8	4d/	4b-\	.	4BB-/	-ne	4F/	-ne	4d\	-ne	4b-\	-ne	4B-/	4b-/	4B-/	4f\	4BB-/	4dd\	.	4bb-\	.
*clefC4	*	*	*2\right	*	*	*	*	*	*	*	*	*	*	*	*	*	*	*	*	*	*	*
4g\	.	6 3	2.b-\	4ee-\	.	4r	.	4r	.	4r	.	4r	.	4r	4r	4r	4r	4g\	4r	.	4r	.
!	!	!	!	!	!	!	!	!	!	!	!	!	!	!	!	!	!	!	!	!	!LO:N:vis=1	!
4f\	.	X 6	.	4dd\	.	2r	.	2r	.	2r	.	2r	.	2r	2r	2r	2r	4f\	2r	.	2r	.
4en\	.	X n	.	4cc\	.	.	.	.	.	.	.	.	.	.	.	.	.	4en\	.	.	.	.
!LO:LB:g=original	!	!	!LO:LB:g=original	!	!	!	!	!	!	!LO:LB:g=original	!	!LO:LB:g=original	!	!	!	!	!	!	!	!	!	!
=6	=6	=6	=6	=6	=6	=6	=6	=6	=6	=6||	=6	=6	=6	=6	=6	=6	=6	=6	=6	=6	=6	=6
!	!	!	!	!	!	!LO:TX:a:t=2.	!	!LO:TX:a:t=2.	!	!	!	!LO:TX:a:t=1	!	!LO:TX:a:t=2	!	!LO:TX:a:t=2	!LO:TX:a:t=2	!	!	!	!	!
!	!	!	!	!	!	!	!	!	!	!	!	!	!	!	!	!	!	!	!LO:N:acc=n	!	!	!
4f\	.	6_ 4_	2b-\	2dd\	.	0r	.	0r	.	0r	.	1r	.	0r	0r	0r	1r	4f\	2b-\	.	2dd\	.
4f\	.	.	.	.	.	.	.	.	.	.	.	.	.	.	.	.	.	4f\	.	.	.	.
4F/	.	X n_	2an\	2cc\	.	.	.	.	.	.	.	.	.	.	.	.	.	4F\	2a\	.	2cc\	.
4F/	.	.	.	.	.	.	.	.	.	.	.	.	.	.	.	.	.	4F\	.	.	.	.
=7	=7	=7	=7	=7	=7	=7	=7	=7	=7	=7	=7	=7	=7	=7	=7	=7	=7	=7	=7	=7	=7	=7
4B-\	.	X X	4b-\	4b-\	.	.	.	.	.	.	.	4r	.	.	.	.	1r	4B-\	4b-\	.	4b-\	.
4r	.	.	4r	4f/	.	.	.	.	.	.	.	4f/	Et	.	.	.	.	4r	4r	.	4ff\	.
!	!	!	!LO:N:vis=1	!	!	!	!	!	!	!	!	!	!	!	!	!	!	!	!	!	!	!
2r	.	.	2r	4f/	.	.	.	.	.	.	.	4f/	lux	.	.	.	.	2r	2r	.	4ff\	.
.	.	.	.	4f/	.	.	.	.	.	.	.	4f/	per-	.	.	.	.	.	.	.	4ff\	.
!	!	!	!	!	!	!LO:LB:g=original	!	!LO:LB:g=original	!	!	!	!	!	!	!	!	!	!	!	!	!LO:LB:g=original	!
!	!	!	!	!	!	!	!	!	!	!	!	!	!	!	!	!	!LO:LB:g=original	!	!	!	!	!
!	!	!	!	!	!	!	!	!	!	!	!	!	!	!	!LO:LB:g=original	!	!	!	!	!	!	!
=8	=8	=8	=8	=8	=8	=8	=8	=8	=8	=8	=8	=8	=8	=8	=8	=8	=8	=8	=8	=8	=8	=8
*clefF4	*	*	*	*	*	*	*	*	*	*	*	*	*	*	*	*	*	*	*	*	*	*
4r	.	.	4r	1g	.	4r	.	4r	.	4r	.	2.g\	-pe-	4r	4r	4r	4r	4r	4r	.	2gg\	.
!	!	!	!	!	!	!	!	!	!	!	!	!	!	!	!	!	!	!LO:N:acc=n	!	!	!	!
4BBn/	.	X 6_	4d/	.	.	4BBn/	per-	4G/	per-	4d\	per-	.	.	4g/	4g/	4G/	4g\	4BB/	4dd\	.	.	.
4BB/	.	.	4d/	.	.	4BB/	-pe-	4G/	-pe-	4d\	-pe-	.	.	4g/	4g/	4G/	4g\	4BB/	4dd\	.	2gg\	.
4BB/	.	.	4d/	.	.	4BB/	-tu-	4G/	-tu-	4d\	-tu-	4g\	-tu-	4g/	4g/	4G/	4g\	4BB/	4dd\	.	.	.
!	!	!	!	!	!	!	!	!	!	!	!	!	!	!	!	!	!	!	!LO:LB:g=original	!	!	!
=9	=9	=9	=9	=9	=9	=9	=9	=9	=9	=9	=9	=9	=9	=9	=9	=9	=9	=9	=9	=9	=9	=9
!	!	!	!	!	!	!LO:SIC:v:s=4C	!	!	!	!	!	!	!	!	!	!	!	!	!	!	!	!
4C/	.	X 6	4e-/	4g/	.	4BB-/	-a	4G/	-a	4e-\	-a	4g\	-a	4g/	4g/	4G/	4g\	4C/	4ee-\	.	4gg\	.
4r	.	.	4r	4g/	.	4r	.	4r	.	4r	.	4g\	lu-	4r	4r	4r	4r	4r	4r	.	4gg\	.
!	!	!	!LO:N:vis=1	!	!	!	!	!	!	!LO:TX:t=P:problem:niekompletny takt - dziura w papierze w źródle	!	!	!	!	!	!	!	!	!	!	!	!
2r	.	.	2r	4g/	.	2r	.	2r	.	2ryy	.	4g\	-ce-	2r	2r	2r	4r	2r	2r	.	4gg\	.
.	.	.	.	4g/	.	.	.	.	.	.	.	4g\	-at	.	.	.	4r	.	.	.	4gg\	.
!	!	!	!	!	!	!	!	!	!	!	!	!	!	!	!	!LO:LB:g=original	!	!	!	!	!	!
=10	=10	=10	=10	=10	=10	=10	=10	=10	=10	=10	=10	=10	=10	=10	=10	=10	=10	=10	=10	=10	=10	=10
!	!	!	!	!	!	!	!	!	!	!	!	!LO:N:vis=2	!	!LO:TX:a:t=16.	!	!LO:TX:a:t=16.	!LO:TX:a:t=16	!	!	!	!	!
4r	.	.	4r	1a-	.	4r	.	2r	.	4r	.	1a-X	e-	00r	00r	00r	00r	4r	4r	.	2aa-X\	.
4C/	.	6- 3	4e-/	.	.	4C/	e-	.	.	(4e-\	e-	.	.	.	.	.	.	4C/	4ee-\	.	.	.
4D/	.	_ 8	2f/	.	.	4D/	.	4B-X\	e-	2f\)	.	.	.	.	.	.	.	4D/	2ff\	.	2aa-\	.
4BB-X/	.	_ 3	.	.	.	4BB-X/	.	4d\	.	.	.	.	.	.	.	.	.	4BB-X/	.	.	.	.
=11	=11	=11	=11	=11	=11	=11	=11	=11	=11	=11	=11	=11	=11	=11	=11	=11	=11	=11	=11	=11	=11	=11
4E-\	.	3 1	4B-/	4g/	.	4E-X\	-i	4B-\	-i	4e-\	-i	4g\	-is	.	.	.	.	4E-\	4b-\	.	4gg\	.
*clefC1	*	*	*	*	*	*	*	*	*	*	*	*	*	*	*	*	*	*	*	*	*	*
4b-\	.	.	4r	4b-/	.	4r	.	4r	.	4r	.	4b-\	te	.	.	.	.	4r	4r	.	4r	.
!	!	!	!	!	!	!	!	!	!	!	!	!	!	!	!	!	!	!	!LO:N:vis=1	!	!LO:N:vis=1	!
4cc\	.	.	2r	4cc/	.	2r	.	2r	.	2r	.	4cc\	de-	.	.	.	.	2r	2r	.	2r	.
4g\	.	.	.	4g/	.	.	.	.	.	.	.	4g\	-cet	.	.	.	.	.	.	.	.	.
!LO:LB:g=original	!	!	!	!	!	!	!	!	!	!	!	!	!	!	!	!	!	!	!	!	!	!
=12	=12	=12	=12	=12	=12	=12	=12	=12	=12	=12	=12	=12	=12	=12	=12	=12	=12	=12	=12	=12	=12	=12
*^	*	*	*	*	*	*	*	*	*	*	*	*	*	*	*	*	*	*	*	*	*	*
!	!	!	!	!	!	!	!LO:TX:a:t=3.	!	!LO:N:vis=2	!	!	!	!	!	!	!	!	!	!	!	!	!	!
4a-/	4r	.	.	4r	4a-/	.	0r	.	1r	.	4r	.	4a-\	him-	.	.	.	.	1r	4r	.	4aa-\	.
8b-/L	4c\	.	.	4c/	8b-\L	.	.	.	.	.	4c\	te	8b-\L	.	.	.	.	.	.	4cc\	.	8bb-\L	.
8cc/J	.	.	.	.	8cc\J	.	.	.	.	.	.	.	8cc\J	.	.	.	.	.	.	.	.	8ccc\J	.
4b-/	4d\	.	.	4d/	4b-\	.	.	.	.	.	4d\	de-	4b-\	.	.	.	.	.	.	4dd\	.	4bb-\	.
4a-/	4B-\	.	.	4B-/	4a-/	.	.	.	.	.	4B-\	-cet	4a-\	.	.	.	.	.	.	4b-\	.	4aa-\	.
!	!	!	!	!	!	!	!	!	!	!	!	!	!LO:LB:g=original	!	!	!	!	!	!	!	!	!	!
=13	=13	=13	=13	=13	=13	=13	=13	=13	=13	=13	=13	=13	=13	=13	=13	=13	=13	=13	=13	=13	=13	=13	=13
4g/	4e-\	.	.	4e-/	2g/	.	.	.	4r	.	(4e-\	hym-	2g\	-nus	.	.	.	.	2r	4ee-\	.	2gg\	p
4g 4B-/	4ryy	.	.	4B-/	.	.	.	.	4B-\	te	4B-\)	.	.	.	.	.	.	.	.	4b-\	.	.	.
*clefC4	*	*	*	*	*	*	*	*	*	*	*	*	*	*	*	*	*	*	*	*	*	*	*
4c\	2ryy	.	3_ 5_	2g/	2ee-\	.	.	.	4c\	de-	2g\	-nus	2ee-\	De-	.	.	.	.	4c\	2g/	.	2ee-\	.
4G/	.	.	.	.	.	.	.	.	4G/	-cet	.	.	.	.	.	.	.	.	4B-\	.	.	.	.
!	!	!	!	!	!	!	!	!	!	!	!LO:LB:g=original	!	!	!	!	!	!	!	!	!	!	!	!
*v	*v	*	*	*	*	*	*	*	*	*	*	*	*	*	*	*	*	*	*	*	*	*	*
!	!	!	!LO:LB:g=original	!	!	!	!	!	!	!	!	!	!	!	!	!	!	!	!LO:LB:g=original	!	!	!
=14	=14	=14	=14	=14	=14	=14	=14	=14	=14	=14||	=14	=14	=14	=14	=14	=14	=14	=14	=14	=14	=14	=14
4An\	.	5 6	2f/	2ee-\	.	1r	.	4An\	him-	1f	De-	2ee-\	-us	00r	00r	00r	00r	4An\	2f/	.	2ee-\	.
4F\	.	.	.	.	.	.	.	4F\	.	.	.	.	.	.	.	.	.	4F\	.	.	.	.
4Bn\	.	6 5	2g/	2dd\	.	.	.	4.Bn\	-nus	.	.	2dd\	De-	.	.	.	.	4Bn\	2g/	.	2dd\	.
4G/	.	.	.	.	.	.	.	.	.	.	.	.	.	.	.	.	.	4G\	.	.	.	.
.	.	.	.	.	.	.	.	8G\	.	.	.	.	.	.	.	.	.	.	.	.	.	.
!	!	!	!	!LO:LB:g=original	!	!	!	!LO:LB:g=original	!	!	!	!	!	!	!	!	!	!	!	!	!	!
=15	=15	=15	=15	=15	=15	=15	=15	=15	=15	=15	=15	=15	=15	=15	=15	=15	=15	=15	=15	=15	=15	=15
*	*	*	*	*	*	*	*	*	*ij	*	*	*	*	*	*	*	*	*	*	*	*	*
4c\	.	9_ 3_	2g/	2dd\	.	4r	.	4c\	him-	2e-\	-us	2dd\	-us	.	.	.	.	4c\	2g/	.	2dd\	.
*clefF4	*	*	*	*	*	*	*	*	*	*	*	*	*	*	*	*	*	*	*	*	*	*
4G\	.	.	.	.	.	4G\	te	4G\	-nus	.	.	.	.	.	.	.	.	4G\	.	.	.	.
*	*	*	*	*	*	*	*	*	*Xij	*	*	*	*	*	*	*	*	*	*	*	*	*
4A-X\	.	3_ 5_	2e-/	2cc\	.	4A-X\	de-	2e-\	in	2e-\	in	2cc\	in	.	.	.	.	4A-X\	2a-/	.	2cc\	.
4E-\	.	.	.	.	.	4E-\	-cet	.	.	.	.	.	.	.	.	.	.	4E-\	.	.	.	.
!	!	!	!	!	!	!LO:LB:g=original	!	!	!	!	!	!	!	!	!	!	!	!	!	!	!LO:LB:g=original	!
=16	=16	=16	=16	=16	=16	=16	=16	=16	=16	=16	=16	=16	=16	=16	=16	=16	=16	=16	=16	=16	=16	=16
4F\	.	5_ 6	1d	2cc\	.	4F\	hym-	1d	Sy-	1d	Sy-	2cc\	Si-	.	.	.	.	4F\	2d/	.	2cc\	.
8G\L	.	.	.	.	.	8G\L	.	.	.	.	.	.	.	.	.	.	.	8G\L	.	.	.	.
8A-\J	.	.	.	.	.	8A-X\J	.	.	.	.	.	.	.	.	.	.	.	8A-\J	.	.	.	.
!LO:LB:g=original	!	!	!	!	!	!	!	!	!	!	!	!	!	!	!	!	!	!	!	!	!	!
8G\L	.	n_	.	2bn\	.	8G\L	.	.	.	.	.	2bn\	-on	.	.	.	.	8G\L	2d/	.	2bX\	.
8F\	.	.	.	.	.	8F\	.	.	.	.	.	.	.	.	.	.	.	8F\	.	.	.	.
8E-\	.	.	.	.	.	8E-\	.	.	.	.	.	.	.	.	.	.	.	8E-\	.	.	.	.
8D\J	.	X X	.	.	.	8D\J	.	.	.	.	.	.	.	.	.	.	.	8D\J	.	.	.	.
=17	=17	=17	=17	=17	=17	=17	=17	=17	=17	=17	=17	=17	=17	=17	=17	=17	=17	=17	=17	=17	=17	=17
!	!	!	!	!	!LO:DY:a:t=pio	!	!	!	!	!	!	!	!	!	!	!	!	!	!	!	!	!
4C/	.	X 8	4e-/	4cc\	p	4C/	-nus	4c\	-on	4e-\	-on	4cc\	et	.	.	.	.	4C/	4e-/	.	2cc\	.
4r	.	.	4r	4cc\	.	4r	.	4r	.	4r	.	4cc\	ti-	.	.	.	.	4r	4r	.	.	.
!	!	!	!	!	!	!	!	!	!	!	!	!	!	!	!	!	!	!	!	!	!LO:N:vis=1	!
2r	.	.	2r	4a-X/	.	2r	.	2r	.	2r	.	4a-X\	-bi	.	.	.	.	2r	2r	.	2r	.
.	.	.	.	4g/	.	.	.	.	.	.	.	4g\	re-	.	.	.	.	.	.	.	.	.
*clefC4	*	*	*	*	*	*	*	*	*	*	*	*	*	*	*	*	*	*	*	*	*	*
!	!	!	!	!	!	!	!	!	!	!	!	!	!	!	!	!	!	!	!LO:LB:g=original	!	!	!
=18	=18	=18	=18	=18	=18	=18	=18	=18	=18	=18	=18	=18	=18	=18	=18	=18	=18	=18	=18	=18	=18	=18
!	!	!	!	!	!LO:DY:a:t=for	!LO:TX:a:t=5.	!	!	!	!	!	!	!	!	!	!	!	!	!	!	!	!
4r	.	.	4r	4f#X/	f	00r	.	4r	.	4r	.	2f#X/	-de-	00r	00r	00r	00r	4r	4r	.	4r	.
4c\	.	7- 3-_	4e-X/	4f#/	.	.	.	4c\	ne-	4e-\	re-	.	.	.	.	.	.	4c\	4ee-\	.	4ff#X\	.
4c\	.	.	4e-/	4f#/	.	.	.	2c\	-de-	2e-\	-de-	2f#/	-tum	.	.	.	.	4c\	4ee-\	.	4ff#\	.
4c\	.	.	4e-/	4f#/	.	.	.	.	.	.	.	.	.	.	.	.	.	4c\	4ee-\	.	4ff#\	.
=19	=19	=19	=19	=19	=19	=19	=19	=19	=19	=19	=19	=19	=19	=19	=19	=19	=19	=19	=19	=19	=19	=19
!	!	!	!	!	!LO:DY:a:t=pio	!	!	!	!	!	!	!	!	!	!	!	!	!	!	!	!	!
4B-X\	.	6 3	4d/	4g/	p	.	.	4B-X\	-tur	4d\	-tur	4g\	vo-	.	.	.	.	4B-X\	4dd\	.	4gg\	.
4r	.	.	4r	4b-/	.	.	.	4r	.	4r	.	4b-X\	.	.	.	.	.	4r	4r	.	4r	.
!	!	!	!	!	!	!	!	!	!	!	!	!	!	!	!	!	!	!	!	!	!LO:N:vis=1	!
!	!	!	!	!	!	!	!	!	!	!	!	!LO:LB:g=original	!	!	!	!	!	!	!	!	!	!
2r	.	.	2r	4g/	.	.	.	2r	.	2r	.	4g/	-tum	.	.	.	.	2r	2r	.	2r	.
.	.	.	.	4fn/	.	.	.	.	.	.	.	4fn/	.	.	.	.	.	.	.	.	.	.
=20	=20	=20	=20	=20	=20	=20	=20	=20	=20	=20	=20	=20	=20	=20	=20	=20	=20	=20	=20	=20	=20	=20
!	!	!	!	!	!LO:DY:a:t=for	!	!	!	!	!	!	!	!	!	!	!	!	!	!	!	!	!
4r	.	.	4r	4en/	f	.	.	4r	.	4r	.	4en/	in	.	.	.	.	4r	4r	.	4eeX\	.
4B-\	.	4n_ 3-_	4d-X/	4e/	.	.	.	4B-\	Je-	4d-X\	Je-	4e/	Je-	.	.	.	.	4B-\	4dd-X\	.	4ee\	.
4B-\	.	.	4d-/	4e/	.	.	.	4B-\	-ru-	4d-\	-ru-	4e/	-ru-	.	.	.	.	4B-\	4dd-\	.	4ee\	.
4B-\	.	.	4d-/	4e/	.	.	.	4B-\	-sale-	4d-\	-sa-	4e/	-sa-	.	.	.	.	4B-\	4dd-\	.	4ee\	.
!	!	!	!	!	!	!	!	!	!	!LO:LB:g=original	!	!	!	!	!	!	!LO:LB:g=original	!	!	!	!	!
=21	=21	=21	=21	=21	=21	=21	=21	=21	=21	=21	=21	=21	=21	=21	=21	=21	=21	=21	=21	=21	=21	=21
!	!	!	!	!	!LO:DY:a:t=pio	!	!	!	!	!	!	!	!	!	!	!	!	!	!	!	!	!
4A-X\	.	X 6	4c/	4f/	p	.	.	4A-X/	-lem	4c\	-lem	4fn/	-lem	.	.	.	.	4A-X\	4cc\	.	4ff\	.
4r	.	.	4r	4a-X/	.	.	.	4r	.	4r	.	4a-X\	ex-	.	.	.	.	4r	4r	.	4r	.
!	!	!	!	!	!	!	!	!	!	!	!	!	!	!	!	!	!	!	!	!	!LO:N:vis=1	!
2r	.	.	2r	4f/	.	.	.	2r	.	2r	.	4f/	-au-	.	.	.	.	2r	2r	.	2r	.
.	.	.	.	4e-X/	.	.	.	.	.	.	.	8e-X/	-di	.	.	.	.	.	.	.	.	.
.	.	.	.	.	.	.	.	.	.	.	.	8e-/	o-	.	.	.	.	.	.	.	.	.
!LO:LB:g=original	!	!	!LO:LB:g=original	!	!	!	!	!LO:LB:g=original	!	!	!	!	!	!	!	!	!	!	!	!	!	!
=22	=22	=22	=22	=22	=22	=22	=22	=22	=22	=22	=22	=22	=22	=22	=22	=22	=22	=22	=22	=22	=22	=22
!	!	!	!	!	!LO:DY:a:t=for	!	!	!	!	!	!	!	!	!	!	!	!	!	!	!	!	!
!	!	!	!	!	!	!LO:N:vis=2	!	!	!	!	!	!	!	!	!	!	!	!	!	!	!	!
4r	.	.	4r	4d/	f	1r	.	4r	.	4r	.	4d/	-ra-	00r	00r	00r	00r	4r	4r	.	4dd\	.
!	!	!	!	!	!	!	!	!	!	!	!	!	!	!	!	!	!	!	!LO:N:acc=n	!	!	!
4A-X\	.	4_ 2_	4B-X/	4d/	.	.	.	4A-\	o-	4B-X/	o-	4d/	-ci-	.	.	.	.	4A-X\	4b-\	.	4dd\	.
4A-\	.	.	4B-/	4d/	.	.	.	4A-\	-ra-	4B-/	-ra-	4d/	-o-	.	.	.	.	4A-\	4b-\	.	4dd\	.
4A-\	.	.	4B-/	4d/	.	.	.	4A-\	-ti-	4B-/	-ti-	4d/	-nem	.	.	.	.	4A-\	4b-\	.	4dd\	.
=23	=23	=23	=23	=23	=23	=23	=23	=23	=23	=23	=23	=23	=23	=23	=23	=23	=23	=23	=23	=23	=23	=23
!	!	!	!	!	!	!	!	!	!	!	!	!	!	!	!	!	!	!	!	!	!LO:N:acc=n	!
4G/	.	X -	4B-/	4e-/	.	2r	.	4G\	-o-	4B-/	-o-	4e-/	me-	.	.	.	.	4G\	4b-\	.	4ee-\	.
4G/	.	X 6	4B-/	4e-/	.	.	.	4G\	-nem	4B-/	-nem	4e-/	-am	.	.	.	.	4G\	4b-\	.	4ee-\	.
*clefF4	*	*	*	*	*	*	*	*	*	*	*	*	*	*	*	*	*	*	*	*	*	*
4E-\	.	X 3_	4B-/	4g/	.	4E-\	ad	4B-\	om-	4e-\	ad	4g\	ad	.	.	.	.	4E-\	4b-\	.	4ggn\	.
4E-\	.	.	4B-/	4g/	.	4E-\	te	4B-\	-nis	4e-\	te	4g\	te	.	.	.	.	4E-\	4b-\	.	4gg\	.
!	!	!	!	!	!	!	!	!	!	!	!	!	!	!	!	!	!	!	!	!	!LO:LB:g=original	!
=24	=24	=24	=24	=24	=24	=24	=24	=24	=24	=24	=24	=24	=24	=24	=24	=24	=24	=24	=24	=24	=24	=24
4E-\	.	4n_ 2_	4f/	4an/	.	4E-\	om-	4c\	ad	4f\	om-	4an\	om-	.	.	.	.	4E-\	4ff\	.	4aa\	.
4E-\	.	.	4f/	4a/	.	4E-\	-nis	4c\	te	4f\	-nis	4a\	-ni	.	.	.	.	4E-\	4ff\	.	4aa\	.
!	!	!	!	!	!	!	!	!	!	!	!	!LO:LB:g=original	!	!	!	!	!	!	!	!	!	!
4D\	.	X 6_	4f/	4b-/	.	4D\	ca-	4B-\	ca-	4f\	ca-	4b-\	ca-	.	.	.	.	4D\	4ff\	.	4bb-\	.
4D\	.	.	4f/	4b-/	.	4D\	-ro	4B-\	-ro	4f\	-ro	4b-\	-ro	.	.	.	.	4D\	4ff\	.	4bb-\	.
!	!	!	!	!LO:LB:g=original	!	!	!	!	!	!	!	!	!	!	!	!	!	!	!	!	!	!
=25	=25	=25	=25	=25	=25	=25	=25	=25	=25	=25	=25	=25	=25	=25	=25	=25	=25	=25	=25	=25	=25	=25
4C/	.	7 3	1e-	2b-\	.	4C/	ve-	2e-\	ve-	2g\	ve-	2b-\	ve-	.	.	.	.	4C\	2ee-\	.	2bb-\	.
8D\L	.	.	.	.	.	8D\L	.	.	.	.	.	.	.	.	.	.	.	8D\L	.	.	.	.
8E-\J	.	.	.	.	.	8E-\J	.	.	.	.	.	.	.	.	.	.	.	8E-\J	.	.	.	.
!	!	!	!	!	!	!	!	!LO:SIC:v:s=2An	!	!	!	!	!	!	!	!	!	!	!	!	!	!
8F\L	.	3n_ 7_	.	2an\	.	8F\L	.	2B-\	-niet-	2e-\	-ni-	2an\	-ni-	.	.	.	.	8F\L	2ee-\	.	2aa\	.
8E-\	.	.	.	.	.	8E-\	.	.	.	.	.	.	.	.	.	.	.	8E-\	.	.	.	.
8D\	.	.	.	.	.	8D\	.	.	.	.	.	.	.	.	.	.	.	8D\	.	.	.	.
8C\J	.	.	.	.	.	8C\J	-ni-	.	.	.	.	.	.	.	.	.	.	8C\J	.	.	.	.
!	!	!	!	!	!	!LO:LB:g=original	!	!	!	!	!	!	!	!	!	!	!	!	!	!	!	!
!	!	!	!	!	!	!	!	!	!	!	!	!	!	!	!	!	!	!	!LO:LB:g=original	!	!	!
!	!	!	!	!	!	!	!	!	!	!	!	!	!	!LO:LB:g=original	!	!	!	!	!	!	!	!
=26	=26	=26	=26	=26	=26	=26	=26	=26	=26	=26	=26	=26	=26	=26	=26	=26	=26	=26	=26	=26	=26	=26
4BB-/	.	X 8	4d/	4b-\	.	4BB-/	-et	4d\	-et	4f\	-et	4b-\	-iat	4r	4r	4r	4r	4BB-/	4dd\	.	4bb-\	.
4A-X\	.	.	4d/	4f/	.	4r	.	4r	.	4r	.	4r	.	4B-/	4b-/	4B-/	4f\	4A-X\	4dd\	.	4ff\	.
4G\	.	.	4e-/	4g/	.	2r	.	2r	.	2r	.	2r	.	4B-/	4b-/	4e-\	4g\	4G\	4ee-\	.	4gg\	.
4F\	.	.	4f/	4a-X/	.	.	.	.	.	.	.	.	.	4B-/	4b-/	4f\	4a-\	4F\	4ff\	.	4aa-X\	.
=27	=27	=27	=27	=27	=27	=27	=27	=27	=27	=27	=27	=27	=27	=27	=27	=27	=27	=27	=27	=27	=27	=27
*	*	*	*	*	*	*	*	*	*	*	*	*	*	*	*	*2\right	*2\right	*	*	*	*	*
!	!	!	!	!	!	!	!	!LO:TX:a:t=4	!	!	!	!	!	!	!	!	!	!	!	!	!	!
2E-\	.	.	2g/	2b-\	.	1r	.	00r	.	4.g\	Ky-	4.b-\	Ki-	2e-/	2g/	2g\	2b-\	2E-\	2gg\	.	2bb-\	.
.	.	.	.	.	.	.	.	.	.	8e-\	-ri-	8g\	-ri-	.	.	.	.	.	.	.	.	.
!	!	!	!	!	!	!	!	!	!	!	!	!	!	!	!	!	!	!	!	!	!LO:N:vis=1	!
2r	.	.	2e-/	2g/	.	.	.	.	.	4e-\	-e	4g\	-e	2r	2r	2r	2r	2r	2r	.	2r	.
.	.	.	.	.	.	.	.	.	.	4e-\	e-	4g\	e-	.	.	.	.	.	.	.	.	.
!LO:LB:g=original	!	!	!	!	!	!	!	!	!	!LO:LB:g=original	!	!	!	!	!	!	!LO:LB:g=original	!	!	!	!	!
=28	=28	=28	=28	=28	=28	=28	=28	=28	=28	=28||	=28	=28	=28	=28	=28	=28	=28	=28	=28	=28	=28	=28
!	!	!	!	!	!	!	!	!	!	!	!	!	!	!LO:N:vis=2	!	!	!	!	!	!	!	!
!	!	!	!	!	!	!	!	!	!	!	!	!	!	!LO:TX:a:t=1	!LO:TX:a:t=1	!LO:TX:a:t=1.	!	!	!LO:TX:a:t=1	!	!LO:TX:a:t=1	!
4.B-\	.	.	1e-	1g	.	4.B-\	Ky-	.	.	2e-\	-lei-	2g\	-lei-	1r	1r	1r	1r	4.B-\	1r	.	1r	.
8G\	.	.	.	.	.	8G\	-ri-	.	.	.	.	.	.	.	.	.	.	8G\	.	.	.	.
4E-\	.	.	.	.	.	4E-\	-e	.	.	2e-\	-son	2g\	-son	.	.	.	.	4E-\	.	.	.	.
4E-\	.	.	.	.	.	4E-\	e-	.	.	.	.	.	.	.	.	.	.	4E-\	.	.	.	.
=29	=29	=29	=29	=29	=29	=29	=29	=29	=29	=29	=29	=29	=29	=29	=29	=29	=29	=29	=29	=29	=29	=29
2C/	.	.	2e-/	2g/	.	2C/	-lei-	.	.	2e-\	Chri-	2g\	Chri-	2e-/	2g/	2e-\	2g\	2C/	2ee-\	p	2gg\	.
!	!	!	!	!	!	!	!	!	!	!	!	!	!	!	!	!	!	!	!LO:N:vis=1	!	!LO:N:vis=1	!
2r	.	.	2c/	2e-/	.	2C/	-son	.	.	4c\	-ste	4e-/	-ste	2r	2r	2r	2r	2r	2r	.	2r	.
.	.	.	.	.	.	.	.	.	.	4c\	e-	4e-/	e-	.	.	.	.	.	.	.	.	.
!	!	!	!LO:LB:g=original	!	!	!	!	!	!	!	!	!	!	!	!	!	!	!	!	!	!	!
=30	=30	=30	=30	=30	=30	=30	=30	=30	=30	=30	=30	=30	=30	=30	=30	=30	=30	=30	=30	=30	=30	=30
!	!	!	!	!	!	!	!	!	!	!	!	!	!	!LO:TX:a:t=2	!	!LO:TX:a:t=2	!LO:TX:a:t=2	!	!LO:TX:a:t=1	!	!LO:TX:a:t=1	!
4.G\	.	.	1c	1e-	.	4.G\	Ky-	.	.	2c\	-lei-	2e-/	-lei-	1r	0r	0r	0r	4.G\	1r	.	1r	.
8E-\	.	.	.	.	.	8E-\	-ri-	.	.	.	.	.	.	.	.	.	.	8E-\	.	.	.	.
4C/	.	.	.	.	.	4C\	-e	.	.	2c\	-son	2e-/	-son	.	.	.	.	4D\	.	.	.	.
4C/	.	.	.	.	.	4C\	e-	.	.	.	.	.	.	.	.	.	.	8C\	.	.	.	.
.	.	.	.	.	.	.	.	.	.	.	.	.	.	.	.	.	.	8r	.	.	.	.
!	!	!	!	!	!	!	!	!	!	!	!	!LO:LB:g=original	!	!	!	!	!	!	!	!	!	!
=31	=31	=31	=31	=31	=31	=31	=31	=31	=31	=31	=31	=31	=31	=31	=31	=31	=31	=31	=31	=31	=31	=31
4C/	.	4_ 6n_	4e-/	4f/	.	1C	-lei-	2An\	Ky-	2e-\	Kÿ-	2f/	Ki-	1r	.	.	.	4C/	2ee-\	.	2ff\	.
4C/	.	.	4e-/	4f/	.	.	.	.	.	.	.	.	.	.	.	.	.	4C/	.	.	.	.
!	!	!	!	!	!	!	!	!	!	!	!	!	!	!	!	!	!	!	!LO:N:vis=1	!	!LO:N:vis=1	!
4C/	.	.	4e-/	4f/	.	.	.	2A\	-ri-	2e-\	-ri-	2f/	-ri-	.	.	.	.	4C/	2r	.	2r	.
4C/	.	.	4e-/	4f/	.	.	.	.	.	.	.	.	.	.	.	.	.	4C/	.	.	.	.
!	!	!	!	!	!	!	!	!LO:LB:g=original	!	!	!	!	!	!	!	!	!	!	!	!	!	!
=32	=32	=32	=32	=32	=32	=32	=32	=32	=32	=32	=32	=32	=32	=32	=32	=32	=32	=32	=32	=32	=32	=32
4BB-/	.	X 5	4d/	4f/	.	2BB-/	-son	2B-\	-e	2d\	-e	2f/	-e	2B-/	2b-/	2B-/	2f\	4BB-/	2dd\	.	2ff\	.
4BB-/	.	.	4d/	4f/	.	.	.	.	.	.	.	.	.	.	.	.	.	4BB-/	.	.	.	.
4C/	.	4_ 6n_	4e-/	4f/	.	2C/	e-	2An\	e-	2e-\	e-	2f/	e-	2r	2r	2r	2r	4C/	2r	.	2r	.
4C/	.	.	4e-/	4f/	.	.	.	.	.	.	.	.	.	.	.	.	.	4C/	.	.	.	.
!	!	!	!	!	!	!LO:LB:g=original	!	!	!	!	!	!	!	!	!	!	!	!	!	!	!LO:LB:g=original	!
=33	=33	=33	=33	=33	=33	=33	=33	=33	=33	=33	=33	=33	=33	=33	=33	=33	=33	=33	=33	=33	=33	=33
*	*	*	*	*	*	*	*	*	*	*	*	*	*	*	*	*	*	*rep	*	*	*	*
4BB-/	.	X 5	4d/	4f/	.	2BB-/	-lei-	2B-\	-lei-	2d\	-lei-	2f/	-le-	2B-/	2b-/	2B-/	2f\	4BB-/	2dd\	.	2ff\	.
4BB-/	.	.	4d/	4f/	.	.	.	.	.	.	.	.	.	.	.	.	.	4BB-/	.	.	.	.
!	!	!	!	!	!	!	!	!	!	!	!	!	!	!	!	!	!	!	!	!	!LO:N:vis=1	!
4C/	.	4_ 6n_	4e-/	4f/	.	4C/	-son	4An\	-son	4e-\	-son	4f/	-i-	2r	2r	2r	2r	4C/	2r	.	2r	.
4C/	.	.	4e-/	4f/	.	4C/	e-	4A\	e-	4e-\	e-	4f/	-son	.	.	.	.	4C/	.	.	.	.
*	*	*	*	*	*	*	*	*	*	*	*	*	*	*	*	*	*	*Xrep	*	*	*	*
!	!	!	!	!	!	!	!	!	!	!	!	!	!	!	!	!	!LO:LB:g=original	!	!	!	!	!
=34	=34	=34	=34	=34	=34	=34	=34	=34	=34	=34	=34	=34	=34	=34	=34	=34	=34	=34	=34	=34	=34	=34
!	!	!	!	!	!	!LO:N:vis=1.	!	!	!	!	!	!	!	!	!	!	!	!	!	!	!	!
4BB-/	.	5_ 4_	4e-/	4f/	.	1BB-	-lei-	2.B-\	-lei-	2e-\	-lei-	1f	lei-	1B-	1b-	1B-	1f	4BB-/	2a-/	.	2ff\	.
4BB-/	.	.	4e-/	4f/	.	.	.	.	.	.	.	.	.	.	.	.	.	4BB-/	.	.	.	.
4BB-/	.	.	4d/	4f/	.	.	.	.	.	2d\	.	.	.	.	.	.	.	4BB-/	2r	.	2r	.
4BB-/	.	X 3	4d/	4f/	.	.	.	4A-X\	.	.	.	.	.	.	.	.	.	4BB-/	.	.	.	.
=35	=35	=35	=35	=35	=35	=35	=35	=35	=35	=35	=35	=35	=35	=35	=35	=35	=35	=35	=35	=35	=35	=35
!	!LO:DY:a:t=p.	!	!	!	!	!	!	!	!	!	!	!	!	!	!	!	!	!	!	!	!	!
2E-\	p	.	2e-/	2e-/	.	2E-\	-son	2G/	-son.	2B-\	-son.	2e-/	-son	2e-/	2g/	2G/	2e-\	2E-\	2g/	.	2ee-\	.
!	!	!	!LO:N:vis=1	!	!	!	!	!	!	!	!	!	!	!	!	!	!	!	!	!	!LO:N:vis=1	!
2r	.	.	2r	2r	.	2r	.	2r	.	2r	.	2r	.	2r	2ryy	2r	2r	2r	2r	.	2r	.
==	==	==	==	==	==	==	==	==	==	==	==	==	==	==	==	==	==	==	==	==	==	==
*-	*-	*-	*-	*-	*-	*-	*-	*-	*-	*-	*-	*-	*-	*-	*-	*-	*-	*-	*-	*-	*-	*-
!!!system-decoration: [(g1)][(g2)][(g3)][(g4)][(s14)]
!!!AIN: 1 alto 1 bass 2 clarb 2 cor 1 fagot 1 organ 1 soprn 1 tenor 2 tromp 2 violn
!!!ENC: Katarzyna Serwa
!!!END: 2020-11-10
!!!EED: Antoni Szymański
!!!EST: 2022-04-01
